X: 379
T: Da zicun
L: 1/16
M: 2/4
K: F
f2 d c d c d f [I:setbarnb 1]| 
c2c4f2 | 
d f d c A2 c d | 
F2F4D2 | 
F F F d c2 c A | 
G2 A c c2 E2 | 
G A G A c2 E2 | 
D2 C D2< E2 D | 
C8 |]

@@@ Tune index: 9253
